src/assets/images/squigly-arrow.svg

<svg width="79" height="235" viewBox="0 0 79 235" fill="none" xmlns="http://www.w3.org/2000/svg">
<path d="M75.7998 3.19806C50.1843 3.91647 54.9044 2.94458 34.1801 22.898C29.4468 27.4551 22.2901 32.9978 20.6682 41.0942C18.2748 53.042 32.9256 89.1888 42.5174 75.8854C48.7163 67.2878 47.5223 52.5204 38.0924 48.6148C22.6279 42.2098 10.1944 61.1468 5.38686 77.5103C0.0940138 95.5256 4.53909 115.234 17.0132 127.263C22.7118 132.758 31.9039 130.27 26.8618 118.599C16.4911 94.596 4.49663 123.714 6.12058 139.661C9.04561 168.385 33.7168 206.119 56.799 200.135C64.0159 198.264 61.657 194.09 58.6284 191.002C55.5553 187.869 47.8279 176.427 49.9025 180.772C53.5294 188.367 58.1307 191.423 63.2708 195.883C69.9006 201.635 55.68 214.205 51.5604 218.692C49.3978 221.047 46.2555 226.322 45.6706 230.164C44.5155 237.748 52.8538 217.931 54.346 210.482" stroke="#00ADB5" stroke-opacity="0.2" stroke-width="5" stroke-linecap="round" stroke-linejoin="round"/>
</svg>

<svg xmlns="http://www.w3.org/2000/svg" width="79" height="235" fill="none">
    <path stroke="#00ADB5" stroke-linecap="round" stroke-linejoin="round" stroke-opacity=".2" stroke-width="5" d="M75.8 3.2c-25.62.72-20.9-.26-41.62 19.7-4.73 4.56-11.89 10.1-13.51 18.2-2.4 11.94 12.26 48.09 21.85 34.79 6.2-8.6 5-23.37-4.43-27.28-15.46-6.4-27.9 12.54-32.7 28.9-5.3 18.02-.85 37.72 11.62 49.75 5.7 5.5 14.9 3.01 9.85-8.66-10.37-24-22.36 5.11-20.74 21.06 2.93 28.72 27.6 66.46 50.68 60.47 7.22-1.87 4.86-6.04 1.83-9.13-3.07-3.13-10.8-14.57-8.73-10.23 3.63 7.6 8.23 10.65 13.37 15.11 6.63 5.75-7.59 18.33-11.71 22.81-2.16 2.36-5.3 7.63-5.89 11.47-1.15 7.59 7.18-12.23 8.68-19.68"/>
</svg>
